resources/images/lout.svg

<svg width="24" height="24" viewBox="0 0 24 24" fill="none" xmlns="http://www.w3.org/2000/svg">
<path d="M15.7096 15.0759L16.5683 15.9345L20.0028 12.5L16.5683 9.06543L15.7096 9.92408L17.6784 11.8928H9.07422V13.1071H17.6784L15.7096 15.0759Z" fill="#7D879B"/>
<path d="M16.6414 17.6518C15.2654 19.0279 13.436 19.7857 11.49 19.7857C9.54382 19.7857 7.71409 19.0279 6.33792 17.6518C4.96172 16.2757 4.21429 14.4461 4.21429 12.5C4.21429 10.5541 4.96172 8.72452 6.33796 7.34835C7.71416 5.97219 9.54386 5.21429 11.49 5.21429C13.4358 5.21429 15.2653 5.97219 16.6414 7.34832C16.7368 7.44395 16.8296 7.54217 16.9197 7.64286H18.4653C16.9294 5.4409 14.3781 4 11.49 4C6.79544 4 3 7.80595 3 12.5C3 17.1945 6.79544 21 11.49 21C14.3782 21 16.9296 19.5592 18.4654 17.3571H16.9198C16.8297 17.4579 16.7369 17.5562 16.6414 17.6518Z" fill="#7D879B"/>
</svg>

<svg xmlns="http://www.w3.org/2000/svg" width="24" height="24" viewBox="0 0 24 24">
    <g id="lout" transform="translate(-10511 -3246)">
        <rect id="Rectangle_44210" data-name="Rectangle 44210" width="24" height="24" transform="translate(10511 3246)" fill="#fff" opacity="0"/>
        <g id="lout-2" data-name="lout" transform="translate(10511.498 3246)">
            <path id="Path_288915" data-name="Path 288915" d="M15.71,15.076l.859.859L20,12.5,16.568,9.065l-.859.859,1.969,1.969h-8.6v1.214h8.6Z" fill="#505050"/>
            <path id="Path_288916" data-name="Path 288916" d="M16.641,17.652a7.286,7.286,0,1,1,0-10.3q.143.143.278.295h1.546a8.5,8.5,0,1,0,0,9.714H16.92Q16.785,17.508,16.641,17.652Z" fill="#505050"/>
        </g>
    </g>
</svg>
